packages/tokens/icons/support/size32Px.svg

<svg viewBox="0 0 32 32" fill="none" xmlns="http://www.w3.org/2000/svg" width="1em" height="1em"><rect x="2.5" y="5.5" width="27" height="21" rx="1.5" stroke="currentColor"/><line x1="3" y1="9.5" x2="29" y2="9.5" stroke="currentColor"/><circle cx="4.5" cy="7.5" r="0.5" fill="currentColor"/><circle cx="6.5" cy="7.5" r="0.5" fill="currentColor"/><circle cx="8.5" cy="7.5" r="0.5" fill="currentColor"/><path d="M21.7058 16.7661H21.1043C20.9809 16.2262 20.765 15.7326 20.4874 15.2699L20.9038 14.8535C21.0272 14.7301 21.0272 14.545 20.9038 14.4216L19.5929 13.1105C19.4695 12.9871 19.2844 12.9871 19.1611 13.1105L18.7446 13.527C18.282 13.2494 17.7884 13.0334 17.2486 12.91V12.3085C17.2486 12.1388 17.1098 12 16.9402 12L15.0895 12C14.9198 12 14.781 12.1388 14.781 12.3085V12.91C14.2412 13.0334 13.7477 13.2494 13.285 13.527L12.8532 13.1105C12.7298 12.9871 12.5447 12.9871 12.4214 13.1105L11.1104 14.4216C10.987 14.545 10.987 14.7301 11.1104 14.8535L11.5268 15.2699C11.2492 15.7326 11.0333 16.2262 10.9099 16.7661H10.3085C10.1388 16.7661 10 16.9049 10 17.0746L10 18.9254C10 19.0951 10.1388 19.2339 10.3085 19.2339H10.9099C11.0333 19.7738 11.2492 20.2674 11.5268 20.7301L11.1104 21.1465C10.987 21.2699 10.987 21.455 11.1104 21.5784L12.4214 22.8895C12.5447 23.0129 12.7298 23.0129 12.8532 22.8895L13.2696 22.473C13.7323 22.7506 14.2258 22.9666 14.7656 23.09V23.6915C14.7656 23.8612 14.9044 24 15.0741 24H16.9248C17.0944 24 17.2332 23.8612 17.2332 23.6915V23.09C17.773 22.9666 18.2665 22.7506 18.7292 22.473L19.1456 22.8895C19.269 23.0129 19.4541 23.0129 19.5775 22.8895L20.8884 21.5784C21.0118 21.455 21.0118 21.2699 20.8884 21.1465L20.472 20.7301C20.7496 20.2674 20.9655 19.7738 21.0889 19.2339H21.6904C21.86 19.2339 21.9988 19.0951 21.9988 18.9254V17.0746C22.0142 16.9049 21.8754 16.7661 21.7058 16.7661Z" stroke="currentColor" stroke-miterlimit="10"/><circle cx="16" cy="18" r="3" stroke="currentColor"/></svg>

<svg xmlns="http://www.w3.org/2000/svg" fill="none" viewBox="0 0 32 32" width="1em" height="1em"><rect width="27" height="21" x="2.5" y="5.5" stroke="currentColor" rx="1.5"/><path stroke="currentColor" d="M3 9.5h26"/><circle cx="4.5" cy="7.5" r=".5" fill="currentColor"/><circle cx="6.5" cy="7.5" r=".5" fill="currentColor"/><circle cx="8.5" cy="7.5" r=".5" fill="currentColor"/><path stroke="currentColor" stroke-miterlimit="10" d="M21.706 16.766h-.602a5.108 5.108 0 0 0-.617-1.496l.417-.416a.298.298 0 0 0 0-.432l-1.311-1.312a.298.298 0 0 0-.432 0l-.416.417a5.107 5.107 0 0 0-1.496-.617v-.601A.31.31 0 0 0 16.94 12h-1.85a.31.31 0 0 0-.309.309v.601c-.54.123-1.033.34-1.496.617l-.432-.416a.298.298 0 0 0-.432 0l-1.31 1.31a.298.298 0 0 0 0 .433l.416.416a5.108 5.108 0 0 0-.617 1.496h-.601a.31.31 0 0 0-.309.309v1.85c0 .17.139.309.309.309h.6c.124.54.34 1.033.618 1.496l-.417.416a.298.298 0 0 0 0 .432l1.311 1.312a.298.298 0 0 0 .432 0l.417-.417c.462.278.956.494 1.496.617v.602c0 .17.138.308.308.308h1.85a.31.31 0 0 0 .31-.308v-.602a5.109 5.109 0 0 0 1.495-.617l.417.417a.298.298 0 0 0 .431 0l1.311-1.312a.298.298 0 0 0 0-.431l-.416-.417c.278-.463.493-.956.617-1.496h.601a.31.31 0 0 0 .309-.309v-1.85a.287.287 0 0 0-.293-.309Z"/><circle cx="16" cy="18" r="3" stroke="currentColor"/></svg>
